!!!COM: Bach, Johann Sebastian
!!!CDT: 1685/3//-1750/7/28/
!!!OTL@@DE: Herr Christ, der ein'ge Gott's Sohn
!!!AGN: 4-Part Chorale
!!!SCT: BH 303
!!!SCT: BWV 96
**harm	**root	**kern	**kern	**kern	**kern
!	!	!bass	!tenor	!alto	!soprno
*	*Iorgan	*Iorgan	*Iorgan	*Iorgan	*Iorgan
*M4/4	*M4/4	*M4/4	*M4/4	*M4/4	*M4/4
*met(c)	*met(c)	*met(c)	*met(c)	*met(c)	*met(c)
*MM60	*MM60	*MM60	*MM60	*MM60	*MM60
*k[b-]	*k[b-]	*k[b-]	*k[b-]	*k[b-]	*k[b-]
*F:	*F:	*F:	*F:	*F:	*F:
*>[A,A,B]	*>[A,A,B]	*>[A,A,B]	*>[A,A,B]	*>[A,A,B]	*>[A,A,B]
*>A	*>A	*>A	*>A	*>A	*>A
I	4FF	4F	4A	4c	4f
=1	=1	=1	=1	=1	=1
IV	4BB-	4BB-	4B-	8d	8f
.	.	.	.	8e	8g
I	4FF	4F	4c	4f	4a
V	4CC	4C	8c	4e	4g
.	.	.	8B-	.	.
vi	4DD	4D	4A	4d	4f
=2	=2	=2	=2	=2	=2
vii7b	4EE	4GG	4B-	4d	2e
V/vi	4AA	4AA	8A	4c#	.
.	.	.	8G	.	.
vi;	4DD;	4D;	4F;	4A;	4d;
V/ii	4DD	4D	4d	4f#	4a
=3	=3	=3	=3	=3	=3
ii	4GG	8G	4d	8g	4b-
.	.	8A	.	8fn	.
V7d	4CC	4B-	4c	4e	4g
I	4FF	8A	4c	4f	4a
.	.	8F	.	.	.
V	4CC	4C	8c	4e	4g
.	.	.	8B-	.	.
=4	=4	=4	=4	=4	=4
I;	2.FF;	2.FF;	2.A;	2.c;	2.f;
=:|!	=:|!	=:|!	=:|!	=:|!	=:|!
*>B	*>B	*>B	*>B	*>B	*>B
I	4FF	8F	4A	4c	8f
.	.	8E	.	.	8g
=5	=5	=5	=5	=5	=5
vi	4DD	4D	4d	4f	4a
V7d/ii	4DD	4C	4d	4f#	4a
iib	4GG	8BB-	4d	4g	4b-
.	.	8AA	.	.	.
ii	4GG	4GG	4d	4g	4b-
!!linebreak: 2
=6	=6	=6	=6	=6	=6
Ib	2FF	4.AA	2c	4g	2cc
.	.	.	.	4fn	.
.	.	8BB-	.	.	.
V;	4CC;	4C;	4c;	4e;	4g;
Vb	4CC	4E	4c	4g	4cc
=7	=7	=7	=7	=7	=7
I	4FF	4F	4c	4f	4a
viioD7/ii	4FF#	4F#	4c	4e-	4a
ii	4GG	4G	4B-	4d	4g
viioD7/iii	4GG#	4G#	4Bn	4d	4f
=8	=8	=8	=8	=8	=8
iii	4AA	4A	8E	4d	2e
.	.	.	8F	.	.
V7/vi	4AA	4AA	4G	4c#	.
IV;	4BB-;	4BB-;	4F;	4d;	4d;
viib/ii	4FF#	4AA	4cn	4f#	4a
=9	=9	=9	=9	=9	=9
ii	4GG	8GG	4d	8g	4b-
.	.	8AA	.	8fn	.
V7d	4CC	4BB-	4c	4e	4g
Ib	4FF	8AA	4c	4f	4a
.	.	8BB-	.	.	.
V	4CC	4C	8c	4e	4g
.	.	.	8B-	.	.
=10	=10	=10	=10	=10	=10
I;	2.FF;	2.FF;	2.A;	2.c;	2.f;
==	==	==	==	==	==
*-	*-	*-	*-	*-	*-
!!chor2scor: -l 2 -s 0.6 -o %b.pmx
!!!YEC: Copyright 1994, David Huron
!!!YEC: Changes/Additions 2001 by Craig Stuart Sapp
!!!YEN: United States of America
!!!SMA: 371 Bach Chorales, edited by Ludwig Erk, C.F. Peters
!!!PDT: 1850, 1865
!!!ONB: Harmony and Root analysis done manually
